P2
16 16
255
200 200 200 200 200 200 40 40 40 40 200 200 200 200 200 200
200 200 200 200 200 200 40 40 40 40 200 200 200 200 200 200
200 200 200 200 200 200 40 40 40 40 200 200 200 200 200 200
200 200 200 200 200 200 40 40 40 40 200 200 200 200 200 200
200 200 200 200 200 200 40 40 40 40 200 200 200 200 200 200
200 200 200 200 200 200 40 40 40 40 200 200 200 200 200 200
40 40 40 40 40 40 40 40 40 40 40 40 40 40 40 40
40 40 40 40 40 40 40 40 40 40 40 40 40 40 40 40
40 40 40 40 40 40 40 40 40 40 40 40 40 40 40 40
40 40 40 40 40 40 40 40 40 40 40 40 40 40 40 40
200 200 200 200 200 200 40 40 40 40 200 200 200 200 200 200
200 200 200 200 200 200 40 40 40 40 200 200 200 200 200 200
200 200 200 200 200 200 40 40 40 40 200 200 200 200 200 200
200 200 200 200 200 200 40 40 40 40 200 200 200 200 200 200
200 200 200 200 200 200 40 40 40 40 200 200 200 200 200 200
200 200 200 200 200 200 40 40 40 40 200 200 200 200 200 200
