P2
16 16
255
59 59 59 59 59 59 59 59 59 59 59 59 59 59 59 31
59 87 87 87 87 87 87 87 87 87 87 87 87 87 59 31
59 87 115 115 115 115 115 115 115 115 115 115 115 87 59 31
59 87 115 143 143 143 143 143 143 143 143 143 115 87 59 31
59 87 115 143 171 171 171 171 171 171 171 143 115 87 59 31
59 87 115 143 171 199 199 199 199 199 171 143 115 87 59 31
59 87 115 143 171 199 227 227 227 199 171 143 115 87 59 31
59 87 115 143 171 199 227 255 227 199 171 143 115 87 59 31
59 87 115 143 171 199 227 227 227 199 171 143 115 87 59 31
59 87 115 143 171 199 199 199 199 199 171 143 115 87 59 31
59 87 115 143 171 171 171 171 171 171 171 143 115 87 59 31
59 87 115 143 143 143 143 143 143 143 143 143 115 87 59 31
59 87 115 115 115 115 115 115 115 115 115 115 115 87 59 31
59 87 87 87 87 87 87 87 87 87 87 87 87 87 59 31
59 59 59 59 59 59 59 59 59 59 59 59 59 59 59 31
31 31 31 31 31 31 31 31 31 31 31 31 31 31 31 31